!!!!SEGMENT: pl-sa--288-a-vii-48--001_lechleitner-ferdinand-simon--litania-de-b-v-mariae-kyrie.krn
!!!cenid: 17xx:436
!!!COM: Lechleitner, Ferdinand Simon
!!!COM-rismid: pe30001903
!!!CDT: ~1700-~1800
!!!CNT:
!!!OPR: Litania de B.V. Mariae
!!!OTL: Kyrie
!!!OMV: 001
!!!PDT: 1741
!!!AGN: Sacred; Mass
!!!SMS-siglum: PL-SA
!!!SMS-shelfmark: 288/A VII 48
!!!SMS-shelfwork: 001-001 M
!!!NIFC-rismid: 1001039077
!!!URL-scan: http://bc.bdsandomierz.pl/dlibra/publication/1784/edition/1752/content
!!!ONB-nifc: UWAGA: części Litanii: Kyrie, Sancta Maria, Virgo prudentissima, Speculum iustitiae, Salus infirmorum, Regina angelorum, Agnus Dei
!!!key:
**kern	**fba	**kern	**dynam	**kern	**dynam	**kern	**text	**kern	**text	**kern	**text	**kern	**text	**kern	**kern
*part9	*part9	*part8	*part8	*part7	*part7	*part6	*part6	*part5	*part5	*part4	*part4	*part3	*part3	*part2	*part1
*staff9	*	*staff8	*	*staff7	*	*staff6	*staff6	*staff5	*staff5	*staff4	*staff4	*staff3	*staff3	*staff2	*staff1
*Iorgan	*	*Ivioln	*	*Ivioln	*	*Iempty	*	*Itenor	*	*Ialto	*	*Ivox	*	*Iempty	*Iempty
*I"Organo	*	*I"Violino 2do	*	*I"Violino 1mo	*	*I"Baſso	*	*I"Tenore	*	*I"Alto	*	*I"Canto	*	*I"Clarino 2do in B♭	*I"Clarino 1mo in B♭
*I'org	*	*I'vn 2	*	*I'vn 1	*	*I'B	*	*I'T	*	*I'A	*	*I'C	*	*I'clno 2	*I'clno 1
*group4	*	*group3	*	*group3	*	*group2	*	*group2	*	*group2	*	*group2	*	*group1	*group1
*clefF4	*	*clefG2	*	*clefG2	*	*clefF4	*	*clefC4	*	*clefC3	*	*clefC1	*	*clefG2	*clefG2
*	*	*	*	*	*	*	*	*	*	*	*	*	*	*ITrd1c2	*ITrd1c2
*k[b-e-]	*	*k[b-e-]	*	*k[b-e-]	*	*k[b-e-]	*	*k[b-e-]	*	*k[b-e-]	*	*k[b-e-]	*	*k[b-e-]	*k[b-e-]
*B-:	*	*B-:	*	*B-:	*	*B-:	*	*B-:	*	*B-:	*	*B-:	*	*B-:	*B-:
*M4/4	*	*M4/4	*	*M4/4	*	*M4/4	*	*M4/4	*	*M4/4	*	*M4/4	*	*M4/4	*M4/4
*met(c)	*	*met(c)	*	*met(c)	*	*met(c)	*	*met(c)	*	*met(c)	*	*met(c)	*	*met(c)	*met(c)
=1	=1	=1	=1	=1	=1	=1	=1	=1	=1	=1	=1	=1	=1	=1	=1
*2\right	*	*2\right	*	*2\right	*	*2\right	*	*2\right	*	*2\right	*	*2\right	*	*	*
!LO:TX:a:t=P:problem= bemol b zapisany w dwóch oktawach	!	!	!	!	!	!	!	!	!	!	!	!	!	!	!
!LO:TX:b:t=Kyrie	!	!LO:TX:b:t=Kyrie	!	!LO:TX:b:t=Kyrie	!	!LO:TX:a:t=P:global:problem=4\ kaudy z prawej strony	!	!LO:TX:a:t=P:global:problem=4\ kaudy z prawej strony	!	!LO:TX:a:t=P:global:problem=4\ kaudy z prawej strony	!	!LO:TX:a:t=P:global:problem=4\ kaudy z prawej strony	!	!LO:TX:b:t=Kyrie	!LO:TX:b:t=Kyrie
!LO:TX:a:t=Adagio	!	!LO:TX:a:t=Adagio	!	!LO:TX:a:t=Adagio	!	!LO:TX:a:t=Adagio	!	!LO:TX:a:t=Adagio	!	!LO:TX:a:t=Adagio	!	!LO:TX:a:t=Adagio	!	!LO:TX:a:t=Adagio	!LO:TX:a:t=Adagio
2BB-/	.	4.ff\	.	4.bb-\	.	4.BB-/	Ky-	4.B-\	Ky-	4.f\	Ky-	4.dd\	Ky-	8B-/L	8B-/L
.	.	.	.	.	.	.	.	.	.	.	.	.	.	16B-/L	16B-/L
.	.	.	.	.	.	.	.	.	.	.	.	.	.	16B-/JJ	16B-/JJ
.	.	.	.	.	.	.	.	.	.	.	.	.	.	16B-/LL	16B-/LL
.	.	.	.	.	.	.	.	.	.	.	.	.	.	16B-/	16B-/
!	!	!LO:TX:a:t=P:global:problem=8\ chorągiewki z lewej strony	!	!LO:TX:a:t=P:global:problem=8\ chorągiewki z lewej strony	!	!LO:TX:a:t=P:global:problem=8\ kaudy z prawej strony	!	!LO:TX:a:t=P:global:problem=8\ kaudy z prawej strony	!	!LO:TX:a:t=P:global:problem=8\ kaudy z prawej strony	!	!LO:TX:a:t=P:global:problem=8\ kaudy z prawej strony	!	!	!
.	.	8dd\	.	8ff\	.	8BB-/	-ri-	8B-\	-ri-	8f\	-ri-	8dd\	-ri-	16B-/	16B-/
.	.	.	.	.	.	.	.	.	.	.	.	.	.	16B-/JJ	16B-/JJ
2En\	6 5	4cc\	.	4gg\	.	4En\	-e	4B-\	-e	4g\	-e	4cc\	-e	4B-/	4B-/
.	.	8een\L	.	4gg\	.	4E\	e-	4B-\	e-	4g\	e-	4cc\	e-	4r	4r
.	.	8dd\J	.	.	.	.	.	.	.	.	.	.	.	.	.
=2	=2	=2	=2	=2	=2	=2	=2	=2	=2	=2	=2	=2	=2	=2	=2
!LO:TX:a:t=P:global:problem=4\ kaudy z prawej strony	!	!	!	!	!	!	!	!	!	!	!	!	!	!	!
4.F\	6 4	4.cc\	.	8gg\L	.	4F\	-lei-	(8B-\L	-lei-	4f\	-lei-	(8b-\L	-lei-	4r	4r
.	3	.	.	8ff\J	.	.	.	8c\J)	.	.	.	8a\J)	.	.	.
.	.	.	.	8ff\L	.	8F\	-son	8c\	-son	8f\	-son	8a\	-son	8r	8r
!LO:TX:a:t=P:global:problem=8\ kaudy z prawej strony	!	!	!	!	!	!	!	!	!	!	!	!	!	!LO:TX:a:t=P:global:problem=8\ chorągiewki z lewej strony	!LO:TX:a:t=P:global:problem=8\ chorągiewki z lewej strony
8D\	6	8dd\	.	8ff\J	.	8D/	e-	8d\	e-	8f\	e-	8b-\	e-	8dd\	8ff\
8E-\L	.	8b-\L	.	8gg\L	.	(8E-\L	-lei-	8G/L	-lei-	8g\L	-lei-	(4.b-\	-lei-	8b-/L	8ee-\L
8F\	.	8dd\	.	8ff\J	.	8F\	.	8A/	.	8f\J	.	.	.	8f/J	8dd\J
8G\	6	8b-\	.	8ee-\L	.	8G\	.	8B-/	.	8e-\	-son	.	.	8b-\L	8ee-\L
8A\J	.	8cc\J	.	16ff\L	.	8A\J)	.	8G/J	.	8f\	e-	8cc\)	.	8cc\J	16ff\L
.	.	.	.	16ee-\JJ	.	.	.	.	.	.	.	.	.	.	16ee-\JJ
=3	=3	=3	=3	=3	=3	=3	=3	=3	=3	=3	=3	=3	=3	=3	=3
!	!	!	!	!	!	!	!	!LO:TX:a:t=P:global:problem=oddech jako rozdzielacz słów	!	!	!	!	!	!	!LO:TX:a:t=P:problem=mixed beam
4B-\	.	8b-\L	.	8dd\L	.	4B-\	.	4B-,\	-son	4f\	-lei-	4dd\	-son	8b-/L	8dd\L
.	.	8dd\J	.	8ff\J	.	.	.	.	.	.	.	.	.	16f/L	16f/L
.	.	.	.	.	.	.	.	.	.	.	.	.	.	16f/JJ	16f/JJ
!	!	!LO:TX:a:t=P:problem=mixed beam	!	!	!	!	!	!	!	!	!	!	!	!	!
4E-\	6 5	8ee-\L	.	8gg\L	.	8E-\	-son	8B-\	e-	8g\	-son	4cc\	e-	8B-/L	8B-/L
.	.	16g/L	.	8cc\J	.	8E-\	e-	8B-\	-lei-	8g\	e-	.	.	8B-/J	8B-/J
.	.	16a/JJ	.	.	.	.	.	.	.	.	.	.	.	.	.
!	!	!	!	!	!	!	!	!	!	!	!	!LO:TX:a:t=P:problem=klamra łukowa nad oznaczeniemi tremolo	!	!	!
4F\	.	4.b-/	.	4.cc\	.	2F\	-lei-	4.B-\	.	2f\	-lei-	2ccT\	-lei-	8f/L	8f/L
.	.	.	.	.	.	.	.	.	.	.	.	.	.	16f/L	16f/L
.	.	.	.	.	.	.	.	.	.	.	.	.	.	16f/JJ	16f/JJ
4FF/	5 4	.	.	.	.	.	.	.	.	.	.	.	.	16f/LL	16f/LL
.	3	.	.	.	.	.	.	.	.	.	.	.	.	16f/	16f/
.	.	8a/	.	8ff\	.	.	.	8c\	.	.	.	.	.	16f/	16f/
.	.	.	.	.	.	.	.	.	.	.	.	.	.	16f/JJ	16f/JJ
=4	=4	=4	=4	=4	=4	=4	=4	=4	=4	=4	=4	=4	=4	=4	=4
1BB-	.	1dd	.	1ff	.	1BB-	-son.	1d	-son	1f	-son	1b-	-son	1d	1f
!LO:TX:a:t=P:problem=podwójna kreska taktowa	!	!LO:TX:a:t=P:problem=podwójna kreska taktowa	!	!LO:TX:a:t=P:problem=podwójna kreska taktowa	!	!LO:TX:a:t=P:problem=podwójna kreska taktowa	!	!LO:TX:a:t=P:problem=podwójna kreska taktowa	!	!LO:TX:a:t=P:problem=podwójna kreska taktowa	!	!LO:TX:a:t=P:problem=podwójna kreska taktowa	!	!LO:TX:a:t=P:problem=podwójna kreska taktowa	!LO:TX:a:t=P:problem=podwójna kreska taktowa
=5	=5	=5	=5	=5	=5	=5	=5	=5	=5	=5	=5	=5	=5	=5	=5
*clefC4	*	*M4/4	*	*	*	*	*	*	*	*	*	*	*	*	*
*	*	*met(c)	*	*	*	*	*	*	*	*	*	*	*	*	*
!LO:TX:a:t=allegro	!	!	!	!	!	!	!	!LO:TX:a:t=alle'ro	!	!LO:TX:a:t=allegro	!	!LO:TX:a:t=allegro	!	!LO:TX:a:t=4	!LO:TX:a:t=4
4.B-\	.	00r	.	0r	.	1r	.	4.B-\	Ky-	00r	.	0r	.	00r	00r
8B-\	.	.	.	.	.	.	.	8B-\	-ri-	.	.	.	.	.	.
8c\L	.	.	.	.	.	.	.	8c\	-e	.	.	.	.	.	.
!LO:TX:a:t=P:global:problem=16\ kaudy z prawej strony	!	!	!	!	!	!	!	!LO:TX:a:t=P:global:problem=16\ kaudy z prawej strony	!	!	!	!	!	!	!
16c\L	7	.	.	.	.	.	.	(16c\LL	e-	.	.	.	.	.	.
16d\JJ	.	.	.	.	.	.	.	16d\JJ)	.	.	.	.	.	.	.
!	!	!	!	!	!	!	!	!LO:LB:g=original	!	!	!	!	!	!	!
16e-\LL	6_ 5_	.	.	.	.	.	.	16e-\LL	-lei-	.	.	.	.	.	.
16d\	.	.	.	.	.	.	.	16d\	.	.	.	.	.	.	.
16e-\	.	.	.	.	.	.	.	16e-\	.	.	.	.	.	.	.
16c\JJ	.	.	.	.	.	.	.	16c\JJ	.	.	.	.	.	.	.
=6	=6	=6	=6	=6	=6	=6	=6	=6	=6	=6	=6	=6	=6	=6	=6
!LO:TX:a:t=P:problem=połowa taktu w kluczu tenorowym	!	!	!	!	!	!LO:TX:a:t=allo	!	!	!	!	!	!	!	!	!
8d\L	6	.	.	.	.	2r	.	8d,\	-son	.	.	.	.	.	.
8B-\J	.	.	.	.	.	.	.	8B-\	e-	.	.	.	.	.	.
4f\	.	.	.	.	.	.	.	2f\	-lei-	.	.	.	.	.	.
*clefF4	*	*	*	*	*	*	*	*	*	*	*	*	*	*	*
4.F\	8	.	.	.	.	4.F\	Ky-	.	.	.	.	.	.	.	.
.	.	.	.	.	.	.	.	(<4e-\	.	.	.	.	.	.	.
8F\	7	.	.	.	.	8F\	-ri-	.	.	.	.	.	.	.	.
=7	=7	=7	=7	=7	=7	=7	=7	=7	=7	=7	=7	=7	=7	=7	=7
8G\L	-	.	.	1r	.	8G\	-e	4e-\)	.	.	.	1r	.	.	.
!	!	!	!	!	!	!LO:TX:a:t=P:global:problem=16\ kaudy z prawej strony	!	!	!	!	!	!	!	!	!
16G\L	6	.	.	.	.	(16G\LL	e-	.	.	.	.	.	.	.	.
16A\JJ	.	.	.	.	.	16A\JJ)	.	.	.	.	.	.	.	.	.
16B-\LL	.	.	.	.	.	16B-\LL	-lei-	4d\	.	.	.	.	.	.	.
16A\	.	.	.	.	.	16A\	.	.	.	.	.	.	.	.	.
16B-\	.	.	.	.	.	16B-\	.	.	.	.	.	.	.	.	.
16G\JJ	.	.	.	.	.	16G\JJ	.	.	.	.	.	.	.	.	.
8A\L	6	.	.	.	.	8A\	.	8c,\	-son	.	.	.	.	.	.
8F\J	.	.	.	.	.	8F\	-son	8c\	e-	.	.	.	.	.	.
!LO:TX:a:t=P:problem=mixed beam	!	!	!	!	!	!	!	!	!	!	!	!	!	!	!
8B-\L	.	.	.	.	.	4B-\	e-	[4d\	-lei-	.	.	.	.	.	.
8BB-/J	.	.	.	.	.	.	.	.	.	.	.	.	.	.	.
=8	=8	=8	=8	=8	=8	=8	=8	=8	=8	=8	=8	=8	=8	=8	=8
!	!	!	!	!LO:TX:b:t=Kyrie	!	!	!	!	!	!	!	!	!	!	!
!	!	!	!	!LO:TX:a:t=Allo	!	!	!	!	!	!	!	!	!	!	!
8D/L	6	.	.	4.b-/	.	2B-\	-lei-	4d\]	.	.	.	4.b-\	ky-	.	.
8C/	.	.	.	.	.	.	.	.	.	.	.	.	.	.	.
.	.	.	.	.	.	.	.	.	.	.	.	.	.	.	.
8D/	.	.	.	.	.	.	.	8d\	-son	.	.	.	.	.	.
.	.	.	.	.	.	.	.	.	.	.	.	.	.	.	.
8BB-/J	.	.	.	8b-/	.	.	.	8d\	e-	.	.	8b-\	-ri-	.	.
.	.	.	.	.	.	.	.	.	.	.	.	.	.	.	.
4AA/	6	.	.	8cc\L	.	4A\	-son	2c\	-lei-	.	.	8cc\	-e	.	.
!	!	!	!	!	!	!	!	!	!	!	!	!LO:TX:a:t=P:global:problem=16\ kaudy z prawej strony	!	!	!
.	.	.	.	16cc\L	.	.	.	.	.	.	.	(16cc\LL	e-	.	.
.	.	.	.	16dd\JJ	.	.	.	.	.	.	.	16dd\JJ)	.	.	.
4FF/	7-	.	.	16ee-\LL	.	4F\	e-	.	.	.	.	16ee-\LL	-lei-	.	.
.	.	.	.	16dd\	.	.	.	.	.	.	.	16dd\	.	.	.
.	.	.	.	16ee-\	.	.	.	.	.	.	.	16ee-\	.	.	.
.	.	.	.	16cc\JJ	.	.	.	.	.	.	.	16cc\JJ	.	.	.
=9	=9	=9	=9	=9	=9	=9	=9	=9	=9	=9	=9	=9	=9	=9	=9
!	!	!LO:TX:b:t=Kyrie	!	!	!	!	!	!	!	!	!	!	!	!LO:TX:b:t=Kyrie	!LO:TX:b:t=Kyrie
!	!	!LO:TX:a:t=Allegro	!	!	!	!	!	!	!	!	!	!	!	!LO:TX:a:t=Alle:	!LO:TX:a:t=Allegro
8BB-/L	.	2r	.	8dd\L	.	8BB-/L	-lei-	8B-\	-son	2r	.	8dd\	-son	4.d/	4.b-\
8C/	.	.	.	8b-\J	.	8C/	.	8f\	e-	.	.	8b-\	e-	.	.
!	!	!	!	!	!	!	!	!	!	!	!	!LO:LB:g=original	!	!	!
8D/	.	.	.	4.ff\	.	8D/	.	8B-\L	-lei-	.	.	4.ff\	-lei-	.	.
8BB-/J	.	.	.	.	.	8BB-/J	.	8d\J	.	.	.	.	.	8d/	8b-\
!	!	!	!	!	!	!LO:LB:g=original	!	!	!	!	!	!	!	!	!
4AA/	6	4.f/	.	.	.	4AA/	-son	4A/	-son	4.f\	Ky-	.	.	8f/L	8cc\L
.	.	.	.	16ee-\LL	.	.	.	.	.	.	.	(16ee-\LL	.	16f/L	16cc\L
.	.	.	.	16dd\JJ	.	.	.	.	.	.	.	16dd\JJ)	.	16b-/JJ	16dd\JJ
!	!	!	!	!	!	!	!	!	!	!	!	!LO:TX:a:t=P:global:problem=oddech jako rozdzielacz słów	!	!	!
4F\	.	.	.	8cc\L	.	4F\	e-	8r	.	.	.	8cc,\	-son	16cc\LL	16ee-\LL
.	.	.	.	.	.	.	.	.	.	.	.	.	.	16b-\	16dd\
.	.	8f/	.	8ff\J	.	.	.	8c\	e-	8f\	-ri-	8cc\	e-	16cc\	16ee-\
.	.	.	.	.	.	.	.	.	.	.	.	.	.	16f\JJ	16cc\JJ
=10	=10	=10	=10	=10	=10	=10	=10	=10	=10	=10	=10	=10	=10	=10	=10
4F\	4 2	8g/L	.	8gg\L	.	(4F\	-lei-	4d\	-le-	8g\	-e	4.b-\	-lei-	8b-\L	8dd\L
!	!	!	!	!	!	!	!	!	!	!LO:TX:a:t=P:global:problem=16\ kaudy z prawej strony	!	!	!	!	!
.	.	16g/L	.	8gg\J	.	.	.	.	.	(16g\LL	e-	.	.	16f\L	16cc\L
.	.	16a/JJ	.	.	.	.	.	.	.	16a\JJ)	.	.	.	16b-\JJ	16dd\JJ
!	!	!	!	!LO:LB:g=original	!	!	!	!	!	!	!	!	!	!LO:LB:g=original	!
4E-\	6 5	16b-/LL	.	8gg\L	.	4E-\)	.	4e-\	-son	16b-\LL	-lei-	.	.	8cc\L	8ee-\L
.	.	16a/	.	.	.	.	.	.	.	16a\	.	.	.	.	.
.	.	16b-/	.	16ff\L	.	.	.	.	.	16b-\	.	(16cc\LL	.	8b-\J	8dd\J
.	.	16g/JJ	.	16gg\JJ	.	.	.	.	.	16g\JJ	.	16b-\JJ)	.	.	.
!	!	!	!	!	!	!	!	!	!	!LO:LB:g=original	!	!	!	!	!
!	!	!	!	!	!	!	!	!	!	!LO:TX:a:t=P:global:problem=oddech jako rozdzielacz słów	!	!	!	!	!
4F\	.	8a/L	.	8ff\L	.	4F\	-son	4c\	e-	8a,\	-son	4a,\	-son	4f/	4cc\
.	.	8f/J	.	8ff\J	.	.	.	.	.	8f\	e-	.	.	.	.
4D\	6	8ff\L	.	8bb-\L	.	4D/	e-	4d\	-ley-	[4b-\	-lei-	4b-\	e-	4r	8r
.	.	8ff\J	.	8bb-\J	.	.	.	.	.	.	.	.	.	.	8f/
!	!	!	!	!	!	!	!	!LO:LB:g=original	!	!	!	!	!	!	!LO:LB:g=original
=11	=11	=11	=11	=11	=11	=11	=11	=11	=11	=11	=11	=11	=11	=11	=11
4C/	7	8ee-\L	.	8bb-\L	.	(4C/	-lei-	4e-\	-son	4b-\]	.	2cc\	-lei-	4r	8f/L
.	.	16dd\L	.	16aa\L	.	.	.	.	.	.	.	.	.	.	16f/L
.	.	16cc\JJ	.	16gg\JJ	.	.	.	.	.	.	.	.	.	.	16f/JJ
!	!	!LO:LB:g=original	!	!	!	!	!	!	!	!	!	!	!	!	!
4F\	7	8cc\L	.	8aa\L	.	4F\)	.	4c\	e-	4a\	-son	.	.	8r	8f/L
.	.	8cc\J	.	8ff\J	.	.	.	.	.	.	.	.	.	8f/	8f/J
8BB-/L	.	8dd\L	.	8ff\L	.	(8BB-/L	-son	8d\L	-lei-	4b-\	e-	8b-\	-son	8f/L	8f/L
8C/	.	8a\	.	8ee-\	.	8C/J)	.	8c\J	.	.	.	8ee-\	e-	16f/L	16f/L
.	.	.	.	.	.	.	.	.	.	.	.	.	.	16f/JJ	16f/JJ
8D/	6	8b-\	.	8ff\	.	(8D\L	e-	8B-\	-son	4b-\	-leison	8ff\L	-lei-	16f/LL	16f/LL
.	.	.	.	.	.	.	.	.	.	.	.	.	.	16f/	16f/
8E-/J	5	8cc\J	.	8gg\J	.	8E-\J)	.	8c\	e-	.	.	16ee-\L	.	16f/	16f/
.	.	.	.	.	.	.	.	.	.	.	.	16dd\JJ	.	16f/JJ	16f/JJ
=12	=12	=12	=12	=12	=12	=12	=12	=12	=12	=12	=12	=12	=12	=12	=12
4F\	.	4.f/	.	4.ff\	.	8F\	-lei-	8c\L	-lei-	8a\	e-	4cc\	-son	4f/	4f/
.	.	.	.	.	.	8F\	-son	8c\J	-son	8a\	-leison	.	.	.	.
4r	.	.	.	.	.	4r	.	4r	.	4r	.	4r	.	4r	4r
.	.	8f/	.	8ff\	.	.	.	.	.	.	.	.	.	.	.
2r	.	8g/L	.	4ff\	.	2r	.	2r	.	2r	.	2r	.	2r	2r
.	.	16g/L	.	.	.	.	.	.	.	.	.	.	.	.	.
.	.	16a/JJ	.	.	.	.	.	.	.	.	.	.	.	.	.
.	.	16b-/LL	.	4een\	.	.	.	.	.	.	.	.	.	.	.
.	.	16a/	.	.	.	.	.	.	.	.	.	.	.	.	.
.	.	16b-/	.	.	.	.	.	.	.	.	.	.	.	.	.
.	.	16g/JJ	.	.	.	.	.	.	.	.	.	.	.	.	.
=13	=13	=13	=13	=13	=13	=13	=13	=13	=13	=13	=13	=13	=13	=13	=13
8F\	.	8a/	.	16ff\LL	.	0r	.	0r	.	0r	.	0r	.	8f/	8f/
.	.	.	.	16cc\	.	.	.	.	.	.	.	.	.	.	.
8r	.	8r	.	16a\	.	.	.	.	.	.	.	.	.	8r	8r
.	.	.	.	16cc\JJ	.	.	.	.	.	.	.	.	.	.	.
8BB-/	.	8dd\	.	16ff\LL	.	.	.	.	.	.	.	.	.	8f/	8f/
.	.	.	.	16dd\	.	.	.	.	.	.	.	.	.	.	.
8r	.	8r	.	16b-\	.	.	.	.	.	.	.	.	.	8r	8r
.	.	.	.	16dd\JJ	.	.	.	.	.	.	.	.	.	.	.
8AA/	6	8cc\	.	16ff\LL	.	.	.	.	.	.	.	.	.	8f/	8f/
.	.	.	.	16cc\	.	.	.	.	.	.	.	.	.	.	.
8r	.	8r	.	16a\	.	.	.	.	.	.	.	.	.	8r	8r
.	.	.	.	16cc\JJ	.	.	.	.	.	.	.	.	.	.	.
8BB-/	.	8dd\L	.	16ff\LL	.	.	.	.	.	.	.	.	.	8f/	8f/
.	.	.	.	16dd\	.	.	.	.	.	.	.	.	.	.	.
8r	.	8b-\J	.	16b-\	.	.	.	.	.	.	.	.	.	8r	8r
.	.	.	.	16dd\JJ	.	.	.	.	.	.	.	.	.	.	.
=14	=14	=14	=14	=14	=14	=14	=14	=14	=14	=14	=14	=14	=14	=14	=14
16r	.	4.ee-\	.	4.gg\	.	.	.	.	.	.	.	.	.	4r	4r
16C/LL	-	.	.	.	.	.	.	.	.	.	.	.	.	.	.
16D/	.	.	.	.	.	.	.	.	.	.	.	.	.	.	.
!LO:LB:g=original	!	!	!	!	!	!	!	!	!	!	!	!	!	!	!
16E-/JJ	.	.	.	.	.	.	.	.	.	.	.	.	.	.	.
16F\LL	.	.	.	.	.	.	.	.	.	.	.	.	.	8r	8r
16G\	.	.	.	.	.	.	.	.	.	.	.	.	.	.	.
16A\	.	8dd\	.	8ff\	.	.	.	.	.	.	.	.	.	8dd\	8ff\
16B-\JJ	.	.	.	.	.	.	.	.	.	.	.	.	.	.	.
!LO:TX:a:t=P:problem=mixed beam	!	!	!	!	!	!	!	!	!	!	!	!	!	!	!
8c\L	.	8cc\L	.	8ee-\L	.	.	.	.	.	.	.	.	.	8cc\L	8ee-\L
8E-\	6	8b-\J	.	16dd\L	.	.	.	.	.	.	.	.	.	16b-\L	16dd\L
.	.	.	.	16cc\JJ	.	.	.	.	.	.	.	.	.	16f\JJ	16cc\JJ
8F\	.	8b-/L	.	8.ccM\L	.	.	.	.	.	.	.	.	.	8b-\L	4ccT\
8FF/J	.	8a/J	.	.	.	.	.	.	.	.	.	.	.	8f\J	.
.	.	.	.	16b-\Jk	.	.	.	.	.	.	.	.	.	.	.
=15	=15	=15	=15	=15	=15	=15	=15	=15	=15	=15	=15	=15	=15	=15	=15
!	!	!	!	!	!	!	!	!	!	!	!	!	!	!LO:TX:a:t=P:problem=mixed beam	!
4.BB-/	.	8b-\L	.	8b-\L	.	4.BB-/	ky-	4.B-\	Ky-	4.f\	ky-	4.dd\	ky-	8d/L	8b-\L
.	.	16dd\L	.	16ff\L	.	.	.	.	.	.	.	.	.	16dd\L	16ff\L
.	.	16dd\JJ	.	16ff\JJ	.	.	.	.	.	.	.	.	.	16dd\JJ	16ff\JJ
!	!	!	!	!LO:LB:g=original	!	!	!	!	!	!	!	!	!	!	!
.	.	16dd\LL	.	16ff\LL	.	.	.	.	.	.	.	.	.	8dd\L	8ff\L
.	.	16dd\	.	16ff\	.	.	.	.	.	.	.	.	.	.	.
8BB-/	.	16dd\	.	16ff\	.	8BB-/	-ri-	8B-\	-ri-	8f\	-ri-	8dd\	-ri	8dd\J	8ff\J
.	.	16dd\JJ	.	16ff\JJ	.	.	.	.	.	.	.	.	.	.	.
8C/L	7	16cc\LL	.	16ee-\LL	.	8C/	-e-	8B-\	-e	8e-\	-e	8ee-\	e-	8cc\L	8ee-\L
.	.	16cc\	.	16ee-\	.	.	.	.	.	.	.	.	.	.	.
16C/L	.	16cc\	.	16ee-\	.	(16C/LL	-lei-	8B-\	e-	(16e-\LL	e-	(16ee-\LL	-lei-	16cc\L	8ee-\J
16D/JJ	.	16cc\JJ	.	16ee-\JJ	.	16D/JJ)	.	.	.	16f\JJ)	.	16dd\JJ)	.	16b-\JJ	.
16E-\LL	6 4	16cc\LL	.	16ee-\LL	.	16E-/LL	.	4A/	-lei-	16g\LL	-lei-	4cc\	.	16cc\LL	16ee-\LL
16D\	.	16cc\	.	16ee-\	.	16D/	.	.	.	16f\	.	.	.	16dd\	16ff\
16E-\	.	16cc\	.	16ee-\	.	16E-/	.	.	.	16g\	.	.	.	16cc\	16ee-\
16C\JJ	.	16cc\JJ	.	16ee-\JJ	.	16C/JJ	.	.	.	16e-\JJ	.	.	.	16cc\JJ	16ee-\JJ
=16	=16	=16	=16	=16	=16	=16	=16	=16	=16	=16	=16	=16	=16	=16	=16
8D/L	6	16b-\LL	.	16ff\LL	.	8D/	-son	8B-\	-son	8f,\	-son	8b-,\	-son	16b-\LL	16dd\LL
.	.	16dd\	.	16ff\	.	.	.	.	.	.	.	.	.	16cc\	16ee-\
8BB-/J	.	16dd\	.	16ff\	.	8BB-/	e-	8d\	e-	8f\	e-	8b-\	e-	16dd\	16ff\
.	.	16dd\JJ	.	16ff\JJ	.	.	.	.	.	.	.	.	.	16cc\JJ	16ee-\JJ
!LO:TX:a:t=P:problem=mixed beam	!	!LO:LB:g=original	!	!	!	!	!	!	!	!	!	!	!	!	!
8F\L	4	16cc\LL	.	16ff\LL	.	4F\	-lei-	4c\	-lei-	4f\	-lei-	8b-\L	-lei-	8b-/L	8dd\L
.	3	16cc\	.	16ff\	.	.	.	.	.	.	.	.	.	.	.
8FF/J	.	16cc\	.	16ff\	.	.	.	.	.	.	.	8a\J	.	16f/L	16cc\L
.	.	16cc\JJ	.	16ff\JJ	.	.	.	.	.	.	.	.	.	16f/JJ	16b-\JJ
!LO:TX:a:t=P:problem=mixed beam	!	!	!	!	!	!	!	!	!	!	!	!	!	!LO:LB:g=original	!
8BB-/L	.	16dd\LL	.	16ff\LL	.	8BB-/	-son	8d\	-son	8f\	-son	8b-\	-son	8d/L	8b-/L
.	.	16dd\	.	16ff\	.	.	.	.	.	.	.	.	.	.	.
!	!	!	!	!	!	!	!	!	!	!	!	!LO:LB:g=original	!	!	!
8B-\J	.	16dd\	.	16ff\	.	8B-\	e-	8B-\	e-	8f\	e-	8dd\	e-	16f/L	16f/L
.	.	16dd\JJ	.	16ff\JJ	.	.	.	.	.	.	.	.	.	16f/JJ	16f/JJ
8F\L	.	16ff\LL	.	16aa\LL	.	8F\L	-lei-	8c\L	-le-	8a\L	-lei-	(8cc\L	-lei-	8f/L	8f/L
.	.	16ff\	.	16aa\	.	.	.	.	.	.	.	.	.	.	.
8G\J	.	16dd\	.	16gg\	.	8G\J	.	16G\L	.	8g\J	.	8b-\J)	.	8f/J	8f/J
.	.	16dd\JJ	.	16gg\JJ	.	.	.	16A\JJ	.	.	.	.	.	.	.
!	!	!	!	!	!	!LO:TX:a:t=P:problem=podwójna kreska taktowa	!	!	!	!	!	!	!	!	!
=17	=17	=17	=17	=17	=17	=17	=17	=17	=17	=17	=17	=17	=17	=17	=17
!LO:TX:a:t=P:problem=mixed beam	!	!	!	!	!	!	!	!	!	!	!	!	!	!	!
8D/L	6	16dd\LL	.	16ff\LL	.	8D/	-son	8B-\	-son	8f\	-son	8b-\	-son	8f/L	8f/L
.	.	16cc\	.	16gg\	.	.	.	.	.	.	.	.	.	.	.
8E-/	6 5	16cc\	.	16gg\	.	8E-\	e-	8B-\	e-	8g\	e-	8cc\	e-	16f/L	16f/L
.	.	16cc\JJ	.	16gg\JJ	.	.	.	.	.	.	.	.	.	16f/JJ	16f/JJ
!	!	!	!	!	!	!LO:TX:a:t=P:problem=mixed beam	!	!	!	!	!	!	!	!	!LO:LB:g=original
!	!	!	!	!	!	!LO:TX:a:t=P:klamra:problem	!	!	!	!	!	!	!	!	!
8F/	4	16cc\LL	.	16ff\LL	.	(>8F\L	-lei-	8B-\L	-lei-	4f\	-lei-	8dd\L	-lei-	16f/LL	16f/LL
.	.	16cc\	.	16ff\	.	.	.	.	.	.	.	.	.	16f/	16f/
8FF/J	3	16cc\	.	16ff\	.	8FF/J)	.	8A\J	.	.	.	16cc\L	.	16f/	16f/
.	.	16cc\JJ	.	16ff\JJ	.	.	.	.	.	.	.	16b-\JJ	.	16f/JJ	16f/JJ
4BB-/	.	4dd\	.	4ff\	.	4BB-/	-son	4B-\	-son	4f\	-son	4b-\	-son	4d/	4f/
.	.	.	.	.	.	.	.	.	.	.	.	.	.	.	.
4r	.	4r	.	4r	.	4r	.	4r	.	4r	.	4r	.	4r	4r
.	.	.	.	.	.	.	.	.	.	.	.	.	.	.	.
!	!	!	!	!	!	!LO:TX:a:t=P:problem=podwójna kreska taktowa	!	!	!	!	!	!	!	!	!
!LO:TX:a:t=P:problem=podwójna kreska taktowa	!	!	!	!	!	!LO:LB:g=original	!	!	!	!LO:LB:g=original	!	!	!	!	!
=18	=18	=18	=18	=18	=18	=18	=18	=18	=18	=18	=18	=18	=18	=18	=18
*M2/2	*	*M2/2	*	*M2/2	*	*M2/2	*	*M2/2	*	*M2/2	*	*M2/2	*	*M2/2	*M2/2
*met(c)	*	*met(c)	*	*met(c)	*	*met(c)	*	*met(c)	*	*met(c)	*	*met(c)	*	*met(c|)	*met(c|)
!	!	!LO:TX:a:t=P:problem=mixed beam	!	!	!	!	!	!	!	!	!	!	!	!	!
!LO:TX:b:t=Christe	!	!LO:TX:b:t=Christe	!	!LO:TX:a:t=Solo	!	!	!	!	!	!	!	!	!	!LO:TX:b:t=Christe	!LO:TX:b:t=Christe
8BB-/L	.	8dd\L	.	8ff\L	.	00r	.	00r	.	00r	.	0r	.	00r	00r
8D/J	6	8d/	.	8b-\	.	.	.	.	.	.	.	.	.	.	.
!	!	!	!	!	!	!LO:TX:a:t=P:problem=mixed beam	!	!	!	!	!	!	!	!	!
8F\L	.	8c/	.	8a\	.	.	.	.	.	.	.	.	.	.	.
8D\J	6	8d/J	.	8b-\J	.	.	.	.	.	.	.	.	.	.	.
!LO:TX:a:t=P:problem=mixed beam	!	!	!	!LO:TX:b:t=Christe	!	!	!	!	!	!	!	!	!	!	!
8E-/L	.	8b-\L	.	8gg\L	.	.	.	.	.	.	.	.	.	.	.
16BB-/L	.	8dd\J	.	8ff\J	.	.	.	.	.	.	.	.	.	.	.
16C/JJ	.	.	.	.	.	.	.	.	.	.	.	.	.	.	.
8D/L	6	16r	.	16r	.	.	.	.	.	.	.	.	.	.	.
.	.	16dd\LL	.	16ff\LL	.	.	.	.	.	.	.	.	.	.	.
8BB-/J	.	16ee-\	.	16gg\	.	.	.	.	.	.	.	.	.	.	.
.	.	16dd\JJ	.	16ff\JJ	.	.	.	.	.	.	.	.	.	.	.
!	!	!	!	!LO:LB:g=original	!	!	!	!	!	!	!	!	!	!	!
=19	=19	=19	=19	=19	=19	=19	=19	=19	=19	=19	=19	=19	=19	=19	=19
4C/	7	(16cc\LL	.	(16ee-\LL	.	.	.	.	.	.	.	.	.	.	.
.	.	16b-\)	.	16dd\)	.	.	.	.	.	.	.	.	.	.	.
.	.	(16b-\	.	(16dd\	.	.	.	.	.	.	.	.	.	.	.
.	.	16cc\JJ)	.	16ee-\JJ)	.	.	.	.	.	.	.	.	.	.	.
8r	.	16cc\LL	.	16ee-\LL	.	.	.	.	.	.	.	.	.	.	.
.	.	16ee-\	.	16gg\	.	.	.	.	.	.	.	.	.	.	.
8F\	7	16dd\	.	16ff\	.	.	.	.	.	.	.	.	.	.	.
.	.	16cc\JJ	.	16ee-\JJ	.	.	.	.	.	.	.	.	.	.	.
!LO:LB:g=original	!	!	!	!	!	!	!	!	!	!	!	!	!	!	!
8BB-/L	.	8b-/L	.	8dd\L	.	.	.	.	.	.	.	.	.	.	.
16BB-/L	.	8f/J	.	8b-\J	.	.	.	.	.	.	.	.	.	.	.
16C/JJ	.	.	.	.	.	.	.	.	.	.	.	.	.	.	.
8D/L	6	16r	.	16r	.	.	.	.	.	.	.	.	.	.	.
.	.	16b-\LL	.	16dd\LL	.	.	.	.	.	.	.	.	.	.	.
8BB-/J	.	16cc\	.	16ee-\	.	.	.	.	.	.	.	.	.	.	.
.	.	16b-\JJ	.	16dd\JJ	.	.	.	.	.	.	.	.	.	.	.
=20	=20	=20	=20	=20	=20	=20	=20	=20	=20	=20	=20	=20	=20	=20	=20
!	!	!	!	!	!	!	!	!	!	!	!	!LO:TX:a:t=Solo	!	!	!
4F\	.	(16a/LL	.	(16cc\LL	.	.	.	.	.	.	.	1r	.	.	.
.	.	16g/)	.	16b-\	.	.	.	.	.	.	.	.	.	.	.
.	.	(16g/	.	16b-\	.	.	.	.	.	.	.	.	.	.	.
.	.	16a/JJ)	.	16cc\JJ)	.	.	.	.	.	.	.	.	.	.	.
!LO:TX:a:t=P:problem=mixed beam	!	!LO:LB:g=original	!	!	!	!	!	!	!	!	!	!	!	!	!
8G\L	7	16g/LL	.	16b-\LL	.	.	.	.	.	.	.	.	.	.	.
.	.	16b-/	.	16dd\	.	.	.	.	.	.	.	.	.	.	.
8C/J	7	16a/	.	16cc\	.	.	.	.	.	.	.	.	.	.	.
.	.	16g/JJ	.	16b-\JJ	.	.	.	.	.	.	.	.	.	.	.
4F\	.	4f/	.	16a/LL	.	.	.	.	.	.	.	.	.	.	.
.	.	.	.	16f/	.	.	.	.	.	.	.	.	.	.	.
.	.	.	.	16g/	.	.	.	.	.	.	.	.	.	.	.
.	.	.	.	16a/JJ	.	.	.	.	.	.	.	.	.	.	.
8D/L	6	16f/LL	.	16b-\LL	.	.	.	.	.	.	.	.	.	.	.
.	.	16a/	.	16cc\	.	.	.	.	.	.	.	.	.	.	.
8C/J	6	16b-/	.	16dd\	.	.	.	.	.	.	.	.	.	.	.
.	.	16cc/JJ	.	16ee-\JJ	.	.	.	.	.	.	.	.	.	.	.
=21	=21	=21	=21	=21	=21	=21	=21	=21	=21	=21	=21	=21	=21	=21	=21
!LO:TX:a:t=P:problem=mixed beam	!	!	!	!	!	!	!	!	!	!	!	!	!	!	!
8BB-/L	.	8dd/L	.	8ff\L	.	.	.	.	.	.	.	2r	.	.	.
8E-\J	6	16cc/	.	16gg\L	.	.	.	.	.	.	.	.	.	.	.
.	.	16b-/J	.	16cc\JJ	.	.	.	.	.	.	.	.	.	.	.
!LO:LB:g=original	!	!	!	!	!	!	!	!	!	!	!	!	!	!	!
8F\L	6 4	8b-/L	.	16dd/LL	.	.	.	.	.	.	.	.	.	.	.
.	.	.	.	16b-/	.	.	.	.	.	.	.	.	.	.	.
8FF/J	5 3	8f/J	.	16f/	.	.	.	.	.	.	.	.	.	.	.
.	.	.	.	16a/JJ	.	.	.	.	.	.	.	.	.	.	.
4BB-/	.	4d/	.	4b-/	.	.	.	.	.	.	.	8r	.	.	.
.	.	.	.	.	.	.	.	.	.	.	.	8ff\	Chri-	.	.
8r	.	4r	.	4r	.	.	.	.	.	.	.	8dd\	-ste-	.	.
8D/	6 4	.	.	.	.	.	.	.	.	.	.	8b-\	-e-	.	.
=22	=22	=22	=22	=22	=22	=22	=22	=22	=22	=22	=22	=22	=22	=22	=22
8C/L	.	0r	.	0r	.	00r	.	00r	.	00r	.	8ee-\L	-lei-	00r	00r
8BB-/	.	.	.	.	.	.	.	.	.	.	.	16dd\L	.	.	.
.	.	.	.	.	.	.	.	.	.	.	.	16ee-\JJ	.	.	.
8AA/	6	.	.	.	.	.	.	.	.	.	.	16cc\LL	.	.	.
.	.	.	.	.	.	.	.	.	.	.	.	16ff\	.	.	.
8FF/J	.	.	.	.	.	.	.	.	.	.	.	16ee-\	.	.	.
.	.	.	.	.	.	.	.	.	.	.	.	16ff\JJ	.	.	.
8BB-/L	.	.	.	.	.	.	.	.	.	.	.	8dd\	.	.	.
8C/	.	.	.	.	.	.	.	.	.	.	.	8b-\	-son	.	.
8D/	6	.	.	.	.	.	.	.	.	.	.	16r	.	.	.
.	.	.	.	.	.	.	.	.	.	.	.	16dd\LL	e-	.	.
8BB-/J	.	.	.	.	.	.	.	.	.	.	.	16ee-\	.	.	.
.	.	.	.	.	.	.	.	.	.	.	.	16dd\JJ	.	.	.
=23	=23	=23	=23	=23	=23	=23	=23	=23	=23	=23	=23	=23	=23	=23	=23
8AA/L	6	.	.	.	.	.	.	.	.	.	.	(16cc\LL	-lei-	.	.
.	.	.	.	.	.	.	.	.	.	.	.	16b-\)	.	.	.
8FF/J	.	.	.	.	.	.	.	.	.	.	.	16b-\	.	.	.
.	.	.	.	.	.	.	.	.	.	.	.	16cc\JJ	.	.	.
8GG/L	7	.	.	.	.	.	.	.	.	.	.	16b-\LL	.	.	.
.	.	.	.	.	.	.	.	.	.	.	.	16dd\	.	.	.
8C/J	7	.	.	.	.	.	.	.	.	.	.	16cc\	.	.	.
.	.	.	.	.	.	.	.	.	.	.	.	16b-\JJ	.	.	.
!LO:TX:a:t=P:problem=mixed beam	!	!	!	!	!	!	!	!	!	!	!	!LO:LB:g=original	!	!	!
8FF/L	.	.	.	.	.	.	.	.	.	.	.	16a\LL	.	.	.
.	.	.	.	.	.	.	.	.	.	.	.	16f\	.	.	.
8F\J	.	.	.	.	.	.	.	.	.	.	.	16g\	.	.	.
.	.	.	.	.	.	.	.	.	.	.	.	16a\JJ	.	.	.
8D/L	6	.	.	.	.	.	.	.	.	.	.	16b-\LL	.	.	.
.	.	.	.	.	.	.	.	.	.	.	.	16cc\	.	.	.
8C/J	6	.	.	.	.	.	.	.	.	.	.	16dd\	.	.	.
.	.	.	.	.	.	.	.	.	.	.	.	16ee-\JJ	.	.	.
=24	=24	=24	=24	=24	=24	=24	=24	=24	=24	=24	=24	=24	=24	=24	=24
!LO:TX:a:t=P:problem=mixed beam	!	!	!	!	!	!	!	!	!	!	!	!	!	!	!
8BB-/L	.	2r	.	2r	.	.	.	.	.	.	.	8ff,\	-son	.	.
8G\J	.	.	.	.	.	.	.	.	.	.	.	8b-\	e-	.	.
8E-\L	6	.	.	.	.	.	.	.	.	.	.	(8cc\L	-lei-	.	.
8F\J	.	.	.	.	.	.	.	.	.	.	.	16b-\L	.	.	.
.	.	.	.	.	.	.	.	.	.	.	.	16a\JJ)	.	.	.
!LO:TX:a:t=P:problem=mixed beam	!	!	!	!	!	!	!	!	!	!	!	!	!	!	!
8BB-/L	.	4r	.	4r	.	.	.	.	.	.	.	8b-\	-son	.	.
16B-\L	.	.	.	.	.	.	.	.	.	.	.	16dd\	ky-	.	.
16A\JJ	.	.	.	.	.	.	.	.	.	.	.	16cc\	-ri-	.	.
8B-\L	.	16r	.	16r	.	.	.	.	.	.	.	8dd\	-e-	.	.
!	!	!	!LO:DY:b:t= piano	!	!LO:DY:b:t= piano	!	!	!	!	!	!	!	!	!	!
.	.	16dd\LL	p	16ff\LL	p	.	.	.	.	.	.	.	.	.	.
8BB-\J	.	16ee-\	.	16gg\	.	.	.	.	.	.	.	(16ee-\LL	-lei-	.	.
.	.	16dd\JJ	.	16ff\JJ	.	.	.	.	.	.	.	16dd\JJ)	.	.	.
=25	=25	=25	=25	=25	=25	=25	=25	=25	=25	=25	=25	=25	=25	=25	=25
4F\	7	(16cc\LL	.	(16ee-\LL	.	.	.	.	.	.	.	16cc\LL	.	.	.
.	.	16b-\)	.	16dd\)	.	.	.	.	.	.	.	16b-\	.	.	.
.	.	(16b-\	.	(16dd\	.	.	.	.	.	.	.	16b-\	.	.	.
.	.	16cc\JJ)	.	16ee-\JJ)	.	.	.	.	.	.	.	16cc\JJ	.	.	.
!	!	!	!	!LO:LB:g=original	!	!	!	!	!	!	!	!	!	!	!
8r	.	16cc\LL	.	16ee-\LL	.	.	.	.	.	.	.	(16cc\LL	-son	.	.
.	.	16ee-\	.	16gg\	.	.	.	.	.	.	.	16ee-\JJ)	.	.	.
8F\	7	16dd\	.	16ff\	.	.	.	.	.	.	.	16dd\LL	e-	.	.
.	.	16cc\JJ	.	16ee-\JJ	.	.	.	.	.	.	.	16cc\JJ	.	.	.
!LO:LB:g=original	!	!	!	!	!	!	!	!	!	!	!	!	!	!	!
8B-\L	.	8b-/L	.	8dd\L	.	.	.	.	.	.	.	8b-\	-lei-	.	.
16G\L	.	8f/J	.	8b-\J	.	.	.	.	.	.	.	8b-\	-son	.	.
16F\JJ	.	.	.	.	.	.	.	.	.	.	.	.	.	.	.
8G\L	.	16r	.	16r	.	.	.	.	.	.	.	16r	.	.	.
.	.	16b-\LL	.	16dd\LL	.	.	.	.	.	.	.	16b-\LL	e-	.	.
8E-\J	6 5	16cc\	.	16ee-\	.	.	.	.	.	.	.	16cc\	.	.	.
.	.	16b-\JJ	.	16dd\JJ	.	.	.	.	.	.	.	16b-\JJ	.	.	.
=26	=26	=26	=26	=26	=26	=26	=26	=26	=26	=26	=26	=26	=26	=26	=26
4F\	.	(16a/LL	.	(16cc\LL	.	1r	.	00r	.	00r	.	16a\LL	-lei-	00r	00r
.	.	16g/)	.	16b-\)	.	.	.	.	.	.	.	16g\	.	.	.
.	.	(16g/	.	(16b-\	.	.	.	.	.	.	.	16g\	.	.	.
.	.	16a/JJ)	.	16cc\JJ)	.	.	.	.	.	.	.	16a\JJ	.	.	.
8r	.	16g/LL	.	(16b-\LL	.	.	.	.	.	.	.	16g\LL	.	.	.
.	.	16b-/	.	16dd\)	.	.	.	.	.	.	.	16b-\	.	.	.
8C/	7	16a/	.	(16cc\	.	.	.	.	.	.	.	16a\	.	.	.
.	.	16g/JJ	.	16b-\JJ)	.	.	.	.	.	.	.	16g\JJ	.	.	.
!LO:TX:a:t=P:problem=mixed beam	!	!	!	!	!	!	!	!	!	!	!	!LO:LB:g=original	!	!	!
8F\L	.	8f/L	.	8a/L	.	.	.	.	.	.	.	8f/	-son	.	.
8A\	6	8d/J	.	8f/J	.	.	.	.	.	.	.	(16dd\LL	e-	.	.
.	.	.	.	.	.	.	.	.	.	.	.	16g\J)	.	.	.
8c\	6 4	4r	.	4r	.	.	.	.	.	.	.	8a\J	-lei-	.	.
8C/J	5 3	.	.	.	.	.	.	.	.	.	.	16g/LL	.	.	.
.	.	.	.	.	.	.	.	.	.	.	.	16f/JJ	.	.	.
=27	=27	=27	=27	=27	=27	=27	=27	=27	=27	=27	=27	=27	=27	=27	=27
!	!	!LO:TX:a:t=4	!	!	!	!LO:TX:a:t=solo	!	!	!	!	!	!	!	!	!
8F\L	.	00r	.	00r	.	(8c\L	Chri-	.	.	.	.	4f/	-son	.	.
8D\J	6	.	.	.	.	8F\J)	.	.	.	.	.	.	.	.	.
8C/L	-	.	.	.	.	(8En\L	-ste	.	.	.	.	2r	.	.	.
8BB-/J	.	.	.	.	.	8F\J)	.	.	.	.	.	.	.	.	.
8C/L	.	.	.	.	.	8d\	au-	.	.	.	.	.	.	.	.
16FF/L	.	.	.	.	.	8c\	-di	.	.	.	.	.	.	.	.
16GG/JJ	.	.	.	.	.	.	.	.	.	.	.	.	.	.	.
8AA/L	6	.	.	.	.	16r	.	.	.	.	.	4r	.	.	.
.	.	.	.	.	.	16c\LL	Chri-	.	.	.	.	.	.	.	.
8FF/J	.	.	.	.	.	16d\	.	.	.	.	.	.	.	.	.
.	.	.	.	.	.	16c\JJ	.	.	.	.	.	.	.	.	.
=28	=28	=28	=28	=28	=28	=28	=28	=28	=28	=28	=28	=28	=28	=28	=28
4GG/	7	.	.	.	.	(16B-\LL	-ste	.	.	.	.	0r	.	.	.
.	.	.	.	.	.	16A\)	.	.	.	.	.	.	.	.	.
.	.	.	.	.	.	(16A\	e-	.	.	.	.	.	.	.	.
.	.	.	.	.	.	16B-\JJ)	.	.	.	.	.	.	.	.	.
8r	.	.	.	.	.	16B-\LL	-xau-	.	.	.	.	.	.	.	.
.	.	.	.	.	.	(16d\	.	.	.	.	.	.	.	.	.
8C/	7n	.	.	.	.	16c\)	.	.	.	.	.	.	.	.	.
.	.	.	.	.	.	16B-\JJ	.	.	.	.	.	.	.	.	.
8F\L	.	.	.	.	.	8A\	.	.	.	.	.	.	.	.	.
16F\L	.	.	.	.	.	8F\	-di	.	.	.	.	.	.	.	.
16G\JJ	.	.	.	.	.	.	.	.	.	.	.	.	.	.	.
8A\L	.	.	.	.	.	16r	.	.	.	.	.	.	.	.	.
.	.	.	.	.	.	16A\LL	Chri-	.	.	.	.	.	.	.	.
8F\J	.	.	.	.	.	16B-\	.	.	.	.	.	.	.	.	.
.	.	.	.	.	.	16A\JJ	.	.	.	.	.	.	.	.	.
=29	=29	=29	=29	=29	=29	=29	=29	=29	=29	=29	=29	=29	=29	=29	=29
4C/	n	.	.	.	.	(16G\LL	-ste	.	.	.	.	.	.	.	.
.	.	.	.	.	.	16F\)	.	.	.	.	.	.	.	.	.
.	.	.	.	.	.	(16F\	.	.	.	.	.	.	.	.	.
.	.	.	.	.	.	16G\JJ)	.	.	.	.	.	.	.	.	.
8D/L	7	.	.	.	.	16F\LL	.	.	.	.	.	.	.	.	.
.	.	.	.	.	.	(16A\	au-	.	.	.	.	.	.	.	.
8GG/J	7 n	.	.	.	.	16G\)	.	.	.	.	.	.	.	.	.
.	.	.	.	.	.	16F\JJ	.	.	.	.	.	.	.	.	.
4C/	.	.	.	.	.	16En\	-di	.	.	.	.	.	.	.	.
.	.	.	.	.	.	16C/LL	Chri-	.	.	.	.	.	.	.	.
.	.	.	.	.	.	16D/	.	.	.	.	.	.	.	.	.
.	.	.	.	.	.	16En/JJ	.	.	.	.	.	.	.	.	.
8F\L	.	.	.	.	.	(16F\LL	-ste	.	.	.	.	.	.	.	.
.	.	.	.	.	.	16G\)	.	.	.	.	.	.	.	.	.
8G\J	.	.	.	.	.	(16A\	ex-	.	.	.	.	.	.	.	.
.	.	.	.	.	.	16B-\JJ)	.	.	.	.	.	.	.	.	.
=30	=30	=30	=30	=30	=30	=30	=30	=30	=30	=30	=30	=30	=30	=30	=30
8A\L	6	.	.	.	.	8c\	-au-	1r	.	1r	.	1r	.	1r	1r
8F\J	.	.	.	.	.	8F\	-di	.	.	.	.	.	.	.	.
8BB-/L	.	.	.	.	.	8B-\	au-	.	.	.	.	.	.	.	.
8C/J	.	.	.	.	.	8c\	-di	.	.	.	.	.	.	.	.
!	!	!	!	!	!	!LO:LB:g=original	!	!	!	!	!	!	!	!	!
4FF/	.	.	.	.	.	4F\	nos	.	.	.	.	.	.	.	.
4r	.	.	.	.	.	4r	.	.	.	.	.	.	.	.	.
=31	=31	=31	=31	=31	=31	=31	=31	=31	=31	=31	=31	=31	=31	=31	=31
!LO:TX:b:t=Pater J.	!	!	!	!	!	!	!	!	!	!	!	!	!	!	!
!LO:TX:a:t=P:problem=mixed beam	!	!	!	!LO:TX:b:t=Pater	!	!	!	!	!	!	!	!	!	!LO:TX:b:t=Pater	!LO:TX:b:t=Pater
8BB-/L	.	16b-\LL	.	16b-/LL	.	4B-\	Pa-	4B-\	Pa-	4f\	Pa-	4dd\	Pa-	8d/L	8b-\L
.	.	16b-\	.	16b-/	.	.	.	.	.	.	.	.	.	.	.
8B-\	.	16b-\	.	16b-/	.	.	.	.	.	.	.	.	.	16f/L	16cc\L
.	.	16b-\JJ	.	16b-/JJ	.	.	.	.	.	.	.	.	.	16f/JJ	16dd\JJ
8A\	.	16ff\LL	.	16ff\LL	.	8A\	-ter	8c\	-ter	8f\	-ter	8cc\	-ter	8f/L	8cc\L
.	.	16ff\	.	16ff\	.	.	.	.	.	.	.	.	.	.	.
8F\J	.	16gg\	.	16gg\	.	8F\	de	8A/	de	8f\	de	8cc\	de	8cc/J	8ff\J
.	.	16aa\JJ	.	16aa\JJ	.	.	.	.	.	.	.	.	.	.	.
!LO:LB:g=original	!	!	!	!	!	!	!	!	!	!	!	!	!	!	!
!LO:TX:a:t=P:problem=mixed beam	!	!	!	!	!	!	!	!	!	!	!	!	!	!	!LO:TX:a:t=P:problem=mixed beam
8B-\L	.	16bb-\LL	.	16bb-\LL	.	8B-\	cae-	8B-\	cae-	8f\	cae-	8dd\	cae-	8b-/L	8dd\L
.	.	16ff\	.	16ff\	.	.	.	.	.	.	.	.	.	.	.
8BB-/J	.	16ff\	.	16ff\	.	8BB-/	-lis	8B-\	-lis	8f\	-lis	8dd\	-lis	16f/L	16f/L
.	.	16ff\JJ	.	16ff\JJ	.	.	.	.	.	.	.	.	.	16f/JJ	16f/JJ
!	!	!	!	!	!	!	!	!	!	!	!	!	!	!LO:TX:a:t=P:problem=mixed beam	!LO:TX:a:t=P:problem=mixed beam
8r	.	16dd\LL	.	16dd\LL	.	8r	.	8r	.	8r	.	8r	.	8f/L	8f/L
.	.	16b-\	.	16b-\	.	.	.	.	.	.	.	.	.	.	.
8BB-/	.	16dd\	.	16dd\	.	8BB-/	de	8B-\	de	8f\	de	8dd\	de	8dd\J	8ff\J
.	.	16ff\JJ	.	16ff\JJ	.	.	.	.	.	.	.	.	.	.	.
=32	=32	=32	=32	=32	=32	=32	=32	=32	=32	=32	=32	=32	=32	=32	=32
8E-\L	.	16gg\LL	.	16gg\LL	.	(8E-\L	cae-	4B-\	cae-	(8g\L	cae-	4b-\	cae-	8ee-\L	8gg\L
.	.	16ff\	.	16ff\	.	.	.	.	.	.	.	.	.	.	.
8D\J	6	16gg\	.	16gg\	.	8D\J)	.	.	.	8f\J)	.	.	.	8b-\J	8dd\J
.	.	16ff\JJ	.	16ff\JJ	.	.	.	.	.	.	.	.	.	.	.
8C/L	6	16ee-\LL	.	16ee-\LL	.	(8C/L	-lis	(8A\L	-lis	(8e-\L	-lis	(8cc\L	-lis	8cc\L	8ee-\L
.	.	16dd\	.	16dd\	.	.	.	.	.	.	.	.	.	.	.
8BB-/J	.	16ee-\	.	16ee-\	.	8BB-/J)	.	8B-\J)	.	8f\J)	.	8dd\J)	.	8f\J	8b-\J
.	.	16dd\JJ	.	16dd\JJ	.	.	.	.	.	.	.	.	.	.	.
!	!	!	!	!	!	!	!	!	!	!	!	!	!	!	!LO:TX:a:t=P:problem=mixed beam
8F\L	.	16cc\LL	.	16cc/LL	.	8F\	De-	8A/	De-	8f\	De-	8cc\	De-	8f/L	8cc\L
.	.	16b-\	.	16b-/	.	.	.	.	.	.	.	.	.	.	.
8G\	.	16a\	.	16a/	.	8G,\	-us	8B-,\	-us	8f,\	-us	8b-,\	-us	8f/J	8f/J
.	.	16b-\JJ	.	16b-/JJ	.	.	.	.	.	.	.	.	.	.	.
8A\	6	16cc\LL	.	16cc\LL	.	8A\	Fi-	8c\	Fi-	8f\	Fi-	8a\	Fi-	8r	8r
.	.	16a\	.	16a\	.	.	.	.	.	.	.	.	.	.	.
8F\J	.	16cc\	.	16cc\	.	8F\	-li	8A/	-li	8f\	-li	8cc\	-li	8f/	8f/
.	.	16ff\JJ	.	16ff\JJ	.	.	.	.	.	.	.	.	.	.	.
!	!	!	!	!LO:LB:g=original	!	!	!	!	!	!	!	!	!	!	!
=33	=33	=33	=33	=33	=33	=33	=33	=33	=33	=33	=33	=33	=33	=33	=33
!	!	!	!	!	!	!	!	!LO:TX:a:t=P:problem=skreślony teks w całym takcie	!	!	!	!	!	!	!
8B-\L	.	16dd\LL	.	16dd\LL	.	(8B-\L	Fi-	(8d\L	Fi-	4f\	Fi-	(8b-\L	Fi-	8f/L	8f/L
.	.	16ff\	.	16ff\	.	.	.	.	.	.	.	.	.	.	.
8A\	6	16cc\	.	16cc\	.	8A\J)	.	8c\J)	.	.	.	8cc\J)	.	16f/L	16f/L
.	.	16ff\JJ	.	16ff\JJ	.	.	.	.	.	.	.	.	.	16f/JJ	16f/JJ
8B-\	.	16dd\LL	.	16dd\LL	.	8B-\	-li	8B-\	-li	8f\	-li	8dd\	-li	16f/LL	16f/LL
.	.	16ff\	.	16ff\	.	.	.	.	.	.	.	.	.	16f/	16f/
8A\J	6	16cc\	.	16cc\	.	8A\	Re-	8c\	Re-	8f\	Re-	8cc\	Re-	16f/	16f/
.	.	16ff\JJ	.	16ff\JJ	.	.	.	.	.	.	.	.	.	16f/JJ	16f/JJ
8B-\L	.	16dd\LL	.	16dd\LL	.	8B-\	-dem-	8B-\	-dem-	8f\	-dem-	8dd\	-dem-	8f/L	8f/L
.	.	16ff\	.	16ff\	.	.	.	.	.	.	.	.	.	.	.
8F\J	.	16aa\	.	16aa\	.	8F\	-ptor	8A/	-ptor	8f\	-ptos	8cc\	-ptor	8f/J	8f/J
.	.	16ff\JJ	.	16ff\JJ	.	.	.	.	.	.	.	.	.	.	.
!	!	!	!	!	!	!	!	!	!	!	!	!LO:LB:g=original	!	!	!
8D/L	6	16bb-\LL	.	16bb-\LL	.	8D/	mun-	8B-\	mun-	8f\	mun-	8b-\	mun-	8f/L	8f/L
.	.	16ff\	.	16ff\	.	.	.	.	.	.	.	.	.	.	.
8BB-/J	.	16ff\	.	16ff\	.	8BB-/	-di	8B-\	-di	8f\	-di	8b-\	-di	16f/L	16f/L
.	.	16gg\JJ	.	16gg\JJ	.	.	.	.	.	.	.	.	.	16f/JJ	16f/JJ
!	!	!	!	!	!	!	!	!	!	!	!	!	!	!LO:LB:g=original	!
=34	=34	=34	=34	=34	=34	=34	=34	=34	=34	=34	=34	=34	=34	=34	=34
8F\L	.	16aa\LL	.	16aa\LL	.	8F\	De-	8A/	De-	8f\	De-	8cc\	De-	8f/L	8f/L
.	.	16aa\	.	16aa\	.	.	.	.	.	.	.	.	.	.	.
8E-\	4 2	16aa\	.	16aa\	.	8E-\	-us	8A/	-us	8f\	-us	8cc\	-us	8f/J	8f/J
.	.	16aa\JJ	.	16aa\JJ	.	.	.	.	.	.	.	.	.	.	.
!	!	!	!	!	!	!	!	!LO:LB:g=original	!	!LO:LB:g=original	!	!	!	!	!
8D\	6	16gg\LL	.	16gg\LL	.	8D/	ſpi-	8B-\	ſpi-	8f\	ſpi-	8dd\	ſpi-	8r	8r
.	.	16ff\	.	16ff\	.	.	.	.	.	.	.	.	.	.	.
8G\J	.	16ee-\	.	16ee-\	.	16G\	-ri-	16B-\	-ri-	16g\	-ri-	16dd\	-ri-	8b-\	8dd\
.	.	16dd\JJ	.	16dd\JJ	.	16G\	-tus	16B-\	-tus	16g\	-tus	16dd\	-tus	.	.
!	!	!LO:LB:g=original	!	!	!	!	!	!	!	!	!	!	!	!	!
8C\L	-	16cc\LL	.	16cc\LL	.	4.c\	ſan-	4.c\	ſan-	4.g\	ſan-	4.ee-\	ſanc-	16cc\LL	16ee-\LL
.	.	16gg\	.	16gg\	.	.	.	.	.	.	.	.	.	16b-\	16dd\
8D\	.	16gg\	.	16gg\	.	.	.	.	.	.	.	.	.	16cc\	16ee-\
.	.	16gg\JJ	.	16gg\JJ	.	.	.	.	.	.	.	.	.	16dd\JJ	16ff\JJ
8E-\	.	16gg\LL	.	16gg\LL	.	.	.	.	.	.	.	.	.	16cc\LL	16ee-\LL
.	.	16ee-\	.	16ee-\	.	.	.	.	.	.	.	.	.	16dd\	16ff\
8C\J	.	16ff\	.	16ff\	.	8c\	-cte	8c\	-cte	8g\	-cte	8ee-\	-te	16ee-\	16gg\
.	.	16gg\JJ	.	16gg\JJ	.	.	.	.	.	.	.	.	.	16cc\JJ	16ee-\JJ
!	!	!	!	!	!	!	!	!	!	!	!	!	!	!	!LO:LB:g=original
=35	=35	=35	=35	=35	=35	=35	=35	=35	=35	=35	=35	=35	=35	=35	=35
8F\L	.	16aa\LL	.	16aa\LL	.	8F\	De-	8A/	De-	8f\	De-	8cc\	De-	8cc/L	8ff\L
.	.	16gg\	.	16gg\	.	.	.	.	.	.	.	.	.	.	.
8E-\	4 2	16aa\	.	16aa\	.	8E-\	-us	8A/	-us	8f,\	-us	8cc\	-us	8f/J	8cc\J
.	.	16gg\JJ	.	16gg\JJ	.	.	.	.	.	.	.	.	.	.	.
!	!	!	!	!	!	!LO:LB:g=original	!	!	!	!	!	!	!	!	!
8D\	6	16ff\LL	.	16ff\LL	.	8D/	ſan-	8B-\	ſan-	8f\	ſan-	8dd\	ſan-	8b-\L	8dd\L
.	.	16dd\	.	16dd\	.	.	.	.	.	.	.	.	.	.	.
8BB-\J	.	16ee-\	.	16ee-\	.	8BB-/	-cta	8B-\	-cta	8f\	-cta	8dd\	-cta	16cc\L	16ee-\L
.	.	16ff\JJ	.	16ff\JJ	.	.	.	.	.	.	.	.	.	16dd\JJ	16ff\JJ
8E-\L	.	16gg\LL	.	16gg\LL	.	8E-\	Tri-	8B-\	Tri-	8g\	Tri-	8ee-\	Tri-	16ee-\LL	16gg\LL
.	6	16ff\	.	16ff\	.	.	.	.	.	.	.	.	.	16dd\	16ff\
8F\	.	16gg\	.	16gg\	.	16E-\	-ni-	16B-\	-ni-	16a\	-ni-	16ee-\	-ni-	16ee-\	16gg\
.	6	16ff\JJ	.	16ff\JJ	.	16F\	-tas	16d\	-tas	16a\	-tas	16dd\	-tas	16cc\JJ	16ff\JJ
8G\	.	16ee-\LL	.	16ee-\LL	.	8G\	u-	8B-\	u-	8b-\	u-	8ee-\	u-	8b-\L	8ee-\L
.	6	16cc\	.	16cc\	.	.	.	.	.	.	.	.	.	.	.
8A\J	5	16ff\	.	16ff\	.	8A\	-nus	8c\	-nus	(16a\LL	-nus	8ff\	-nus	8cc\J	16ff\L
.	.	16ee-\JJ	.	16ee-\JJ	.	.	.	.	.	16g\JJ)	.	.	.	.	16ee-\JJ
=36	=36	=36	=36	=36	=36	=36	=36	=36	=36	=36	=36	=36	=36	=36	=36
8B-\L	.	16dd\LL	.	16dd\LL	.	8B-\	De-	8B-\	De-	8f\	De-	8ee-\	De-	8b-/L	8dd\L
.	.	16ff\	.	16ff\	.	.	.	.	.	.	.	.	.	.	.
8B-\	.	16b-\	.	16b-\	.	8B-,\	-us	8B-,\	-us	8f,\	-us	8ee-\	-us	8d/	8b-\J
.	.	16ff\JJ	.	16ff\JJ	.	.	.	.	.	.	.	.	.	.	.
8A\	6	16cc\LL	.	16cc\LL	.	8A\	mi-	8c\	mi-	8f\	mi-	8ff\	mi-	8f/	8f/L
.	.	16ff\	.	16ff\	.	.	.	.	.	.	.	.	.	.	.
8F\J	.	16a\	.	16a\	.	8F\	-se-	8A/	-se-	8f\	-se-	8ff\	-se-	8f/J	8f/J
.	.	16ff\JJ	.	16ff\JJ	.	.	.	.	.	.	.	.	.	.	.
8B-\L	.	16dd\LL	.	16dd\LL	.	8B-\	-re-	8B-\	-re-	8f\	-re-	8dd\	-re-	8f/L	8f/L
.	.	16ff\	.	16ff\	.	.	.	.	.	.	.	.	.	.	.
8F\	.	16aa\	.	16aa\	.	8F\	-re	8A/	-re	8a\	-re	8cc\	-re	16f/L	16f/L
.	.	16ff\JJ	.	16ff\JJ	.	.	.	.	.	.	.	.	.	16f/JJ	16f/JJ
!	!	!	!	!LO:LB:g=original	!	!	!	!	!	!	!	!	!	!	!
8B-\	.	16ff\LL	.	16ff\LL	.	8B-\	mi-	8B-\	mi-	8f\	mi-	8dd\	mi-	16f/LL	16f/LL
.	.	16ff\	.	16ff\	.	.	.	.	.	.	.	.	.	16f/	16f/
8A\J	6	16ff\	.	16ff\	.	8A\	-se-	8c\	-se-	8f\	-se-	8ff\	-se-	16f/	16f/
.	.	16ff\JJ	.	16ff\JJ	.	.	.	.	.	.	.	.	.	16f/JJ	16f/JJ
!	!	!	!	!	!	!	!	!	!	!	!	!LO:LB:g=original	!	!	!
=37	=37	=37	=37	=37	=37	=37	=37	=37	=37	=37	=37	=37	=37	=37	=37
8B-\L	.	16ff\LL	.	16ff\LL	.	8B-\	-re-	8B-\	-re-	8f\	-re-	8dd\	-re-	8f/L	8f/L
.	.	16ff\	.	16ff\	.	.	.	.	.	.	.	.	.	.	.
8F\J	.	16ff\	.	16ff\	.	8F\	-re	8A\	-re	8f\	-re	8cc\	-re	8f/J	8f/J
.	.	16ff\JJ	.	16ff\JJ	.	.	.	.	.	.	.	.	.	.	.
!	!	!	!	!	!	!	!	!	!	!LO:LB:g=original	!	!	!	!	!
*	*	*	*	*	*	*	*ij	*	*	*	*	*	*	*	*
8D/L	6	16ff\LL	.	16ff\LL	.	8D\	mi-	8B-\	mi-	8f\	mi-	8dd\	mi-	8dd\L	8ff\L
.	.	16ff\	.	16ff\	.	.	.	.	.	.	.	.	.	.	.
8BB-/J	.	16ff\	.	16ff\	.	8BB-/	-se-	8d\	-se-	8f\	-se-	8dd\	-se-	8dd\J	8ff\J
.	.	16ff\JJ	.	16ff\JJ	.	.	.	.	.	.	.	.	.	.	.
!LO:TX:a:t=P:problem=mixed beam	!	!	!	!	!	!	!	!LO:LB:g=original	!	!	!	!	!	!	!
8E-/L	6 5	16gg\LL	.	16gg\LL	.	8E-\	-re-	8e-\	-re-	8g\	-re-	8cc\	-re-	16cc\LL	16ee-\LL
.	.	16gg\	.	16gg\	.	.	.	.	.	.	.	.	.	16dd\	16ff\
8C/	.	16gg\	.	16gg\	.	8C/	-re	8e-,\	-re	8g\	-re	(16b-\L	-re	16cc\	16ee-\
.	.	16gg\JJ	.	16gg\JJ	.	.	.	.	.	.	.	16cc\J)	.	16b-\JJ	16dd\JJ
*	*	*	*	*	*	*	*Xij	*	*	*	*	*	*	*	*
!	!	!	!	!	!	!LO:TX:a:t=P:problem=mixed beam	!	!	!	!	!	!	!	!	!
8F/	.	16ff\LL	.	16ff\LL	.	8F\L	no-	4c\	no-	4f\	no-	(8dd\L	no-	8f/L	4ccT\
.	.	16ff\	.	16ff\	.	.	.	.	.	.	.	.	.	.	.
8FF/J	5 3-	16ff\	.	16ff\	.	8FF/J	.	.	.	.	.	16cc\	.	16f/L	.
.	.	16ff\JJ	.	16ff\JJ	.	.	.	.	.	.	.	16b-\J)	.	16f/JJ	.
!LO:LB:g=original	!	!LO:LB:g=original	!	!	!	!	!	!	!	!	!	!	!	!	!
=38	=38	=38	=38	=38	=38	=38	=38	=38	=38	=38	=38	=38	=38	=38	=38
!LO:TX:a:t=P:problem=mixed beam	!	!	!	!	!	!	!	!	!	!	!	!	!	!	!
8BB-/L	.	16ff\LL	.	16ff\LL	.	4BB-/	-bis	4d\	-bis	4f\	-bis	4b-,\	-bis	4d/	4b-\
.	.	16dd\	.	16dd\	.	.	.	.	.	.	.	.	.	.	.
8B-\J	.	16dd\	.	16dd\	.	.	.	.	.	.	.	.	.	.	.
.	.	16dd\JJ	.	16dd\JJ	.	.	.	.	.	.	.	.	.	.	.
8A\L	7	16cc\LL	.	16cc\LL	.	8A\	mi-	8A/	mi-	8g\	mi-	8cc\	mi-	8r	8r
.	.	16ff#X\	.	16ff#X\	.	.	.	.	.	.	.	.	.	.	.
8D\J	7	16ff#\	.	16ff#\	.	8D/	-se-	8A/	-se-	8f#X\	-se-	8cc\	-se-	8d/	8d/
.	.	16ff#\JJ	.	16ff#\JJ	.	.	.	.	.	.	.	.	.	.	.
8G\L	-	16gg\LL	.	16gg\LL	.	8G\	-re-	8B-\	-re-	8g\	-re-	8b-\	-re-	8d/L	8d/L
.	.	16dd\	.	16dd\	.	.	.	.	.	.	.	.	.	.	.
8D\J	.	16dd\	.	16dd\	.	8D/	-re	8d\	-re	8f#X\	-re	8a\	-re	16d/L	16d/L
.	.	16dd\JJ	.	16dd\JJ	.	.	.	.	.	.	.	.	.	16d/JJ	16d/JJ
8G#X\L	-	16dd\LL	.	16dd\LL	.	8G\	mi-	8B-\	mi-	8g\	mi-	8b-\	mi-	16d/LL	16d/LL
.	.	16aa\	.	16aa\	.	.	.	.	.	.	.	.	.	16d/	16d/
8F#X\J	5	16aa\	.	16aa\	.	8F#X\	-se-	8A/	-se-	8d\	-se-	8dd\	-se-	16d/	16d/
.	.	16aa\JJ	.	16aa\JJ	.	.	.	.	.	.	.	.	.	16d/JJ	16d/JJ
!	!	!	!	!	!	!LO:LB:g=original	!	!	!	!	!	!	!	!LO:LB:g=original	!
=39	=39	=39	=39	=39	=39	=39	=39	=39	=39	=39	=39	=39	=39	=39	=39
8G\L	-	16gg\LL	.	16gg\LL	.	8G\	-re-	8d\	-re-	8g\	-re-	8b-\	-re-	8d/L	8d/L
.	.	16aa\	.	16aa\	.	.	.	.	.	.	.	.	.	.	.
8D\J	#	16gg\	.	16gg\	.	8D/	-re	8d\	-re	8f#X\	-re	8a\	-re	16d/L	16d/L
.	.	16ff#X\JJ	.	16ff#X\JJ	.	.	.	.	.	.	.	.	.	16d/JJ	16d/JJ
*	*	*	*	*	*	*	*ij	*	*	*	*	*	*	*	*
8BB-/L	6	16gg\LL	.	16gg\LL	.	8BB-/	mi-	8d\	mi-	8g\	mi-	8dd\	mi-	8d/L	8d/L
.	.	16gg\	.	16gg\	.	.	.	.	.	.	.	.	.	.	.
8GG/J	.	16gg\	.	16gg\	.	8GG/	-se-	8B-\	-se-	8g\	-se-	8dd\	-se-	8d/	8d/J
.	.	16gg\JJ	.	16gg\JJ	.	.	.	.	.	.	.	.	.	.	.
8C/L	6 5	16gg\LL	.	16gg\LL	.	8C/	-re-	8e-\	-re-	8g\	-re-	(16ee-\L	-re-	8d/	16d/LL
.	.	16gg\	.	16gg\	.	.	.	.	.	.	.	16dd\J)	.	.	16d/
8AA/J	.	16gg\	.	16gg\	.	8AA/	-re	8e-\	-re	(16a\L	-re	(16cc\L	-re	8d/J	16d/
.	.	16gg\JJ	.	16gg\JJ	.	.	.	.	.	16g\J)	.	16b-\J)	.	.	16d/JJ
*	*	*	*	*	*	*	*Xij	*	*	*	*	*	*	*	*
!LO:TX:a:t=P:problem=mixed beam	!	!	!	!	!	!	!	!	!	!	!	!	!	!	!
8D\L	4	16gg\LL	.	16gg\LL	.	4D/	no-	4d\	no-	(8g\L	no-	(8b-L\	no-	8d/L	16d/LL
.	.	16ff#X\	.	16ff#X\	.	.	.	.	.	.	.	.	.	.	16d/
8DD/J	#	16ff#\	.	16ff#\	.	.	.	.	.	8f#X\J)	.	16a\)	.	16d/L	16d/
.	.	16ff#\JJ	.	16ff#\JJ	.	.	.	.	.	.	.	16g\J	.	16d/JJ	16d/JJ
=40	=40	=40	=40	=40	=40	=40	=40	=40	=40	=40	=40	=40	=40	=40	=40
!LO:TX:a:t=P:problem=mixed beam	!	!	!	!	!	!	!	!	!	!	!	!	!	!	!
8GG/L	.	16gg\LL	.	16gg\LL	.	4GG/	-bis	4d\	-bis	4g\	-bis	4g/	-bis	4d/	4d/
.	.	16dd\	.	16dd\	.	.	.	.	.	.	.	.	.	.	.
8B-X\	.	16dd\	.	16dd\	.	.	.	.	.	.	.	.	.	.	.
.	.	16dd\JJ	.	16dd\JJ	.	.	.	.	.	.	.	.	.	.	.
8A\	6	16ffn\LL	.	16ffn\LL	.	8A\	mi-	8A/	mi-	8fn\	mi-	8cc\	mi-	8f/L	8f/L
.	.	16ff\	.	16ff\	.	.	.	.	.	.	.	.	.	.	.
8F\J	.	16ff\	.	16ff\	.	8F\	-se-	8A/	-se-	8f\	-sed-	8cc\	-se-	8f/J	8f/J
.	.	16ff\JJ	.	16ff\JJ	.	.	.	.	.	.	.	.	.	.	.
!	!	!	!	!LO:LB:g=original	!	!	!	!	!	!	!	!LO:LB:g=original	!	!	!LO:LB:g=original
8B-\L	.	16ff\LL	.	16ff\LL	.	8B-\	-re-	8B-\	-re-	8f\	-re-	8dd\	-re-	8f/L	8f/L
.	.	16ff\	.	16ff\	.	.	.	.	.	.	.	.	.	.	.
8A\	6	16ff\	.	16ff\	.	8A\	-re	8c\	-re	8f\	-re	8ff,\	-re	16f/L	16f/L
.	.	16ff\JJ	.	16ff\JJ	.	.	.	.	.	.	.	.	.	16f/JJ	16f/JJ
!	!	!	!	!	!	!	!	!	!	!LO:LB:g=original	!	!	!	!	!
*	*	*	*	*	*	*	*ij	*	*	*	*	*	*	*	*
8G\	6	16gg\LL	.	16gg\LL	.	8G\	mi-	8B-\	mi-	8g\	mi-	8ee-\	mi-	16f/LL	16f/LL
!	!	!LO:TX:a:t=P:problem=dopisana litera g pod nutą	!	!	!	!	!	!	!	!	!	!	!	!	!
.	.	16gg\	.	16gg\	.	.	.	.	.	.	.	.	.	16f/	16f/
8F\J	6	16aa\	.	16aa\	.	8F\	-se-	8A/	-se-	8a\	-se-	8dd\	-se-	16f/	16f/
.	.	16aa\JJ	.	16aa\JJ	.	.	.	.	.	.	.	.	.	16f/JJ	16f/JJ
=41	=41	=41	=41	=41	=41	=41	=41	=41	=41	=41	=41	=41	=41	=41	=41
8E-\L	6	16gg\LL	.	16gg\LL	.	8E-\	-re-	8c\	-re-	8g\	-re-	8cc\	-re-	8f/L	8cc\L
.	.	16gg\	.	16gg\	.	.	.	.	.	.	.	.	.	.	.
16D\L	6	16ff\	.	16ff\	.	16D/L	-re	(16d\L	-re	16f\LL	-re	(16b-\LL	-re	16b-/L	16dd\L
*	*	*	*	*	*	*	*Xij	*	*	*	*	*	*	*	*
16E-\JJ	6 5	16gg\JJ	.	16gg\JJ	.	16E-/J	.	16c\J)	.	16g\JJ	.	16cc\J)	.	16f/JJ	16cc\JJ
!LO:TX:a:t=P:problem=mixed beam	!	!	!	!	!	!LO:TX:a:t=P:problem=mixed beam	!	!LO:LB:g=original	!	!	!	!	!	!LO:TX:a:t=P:problem=mixed beam	!
8F\L	4	16ff\LL	.	16ff\LL	.	8F\L	no-	(8B-\L	no-	4f\	no-	(8dd\	no-	16b-\LL	8.ccT\L
.	3	16ee-\	.	16ee-\	.	.	.	.	.	.	.	.	.	16B-/	.
8FF/J	.	16dd\	.	16dd\	.	8FF/J	.	8c\J)	.	.	.	16cc\L	.	16d/	.
.	.	16cc\JJ	.	16cc\JJ	.	.	.	.	.	.	.	16b-\JJ)	.	16f/JJ	16b-\Jk
!	!	!LO:LB:g=original	!	!	!	!	!	!	!	!	!	!	!	!	!
8BB-/L	.	16b-\LL	.	16dd\LL	.	4BB-/	-bis	4d\	-bis	4f\	-bis	4b-\	-bis	8d/L	8b-/L
.	.	16dd\	.	16ff\	.	.	.	.	.	.	.	.	.	.	.
8D/J	6	16b-\	.	16b-\	.	.	.	.	.	.	.	.	.	16f/L	16f/L
.	.	16ff\JJ	.	16ff\JJ	.	.	.	.	.	.	.	.	.	16f/JJ	16f/JJ
8E-\L	6	16cc\LL	.	16gg\LL	.	8r	.	8r	.	8r	.	8r	.	16f/LL	16f/LL
.	.	16cc\	.	16gg\	.	.	.	.	.	.	.	.	.	16f/	16f/
8F\J	.	16cc\	.	16aa\	.	8F\	no-	8c\	no-	8f\	no-	8a\	no-	16f/	16f/
.	.	16cc\JJ	.	16aa\JJ	.	.	.	.	.	.	.	.	.	16f/JJ	16f/JJ
=42	=42	=42	=42	=42	=42	=42	=42	=42	=42	=42	=42	=42	=42	=42	=42
4BB-/	.	4dd\	.	4bb-\	.	4BB-/	-bis	4d\	-bis	4f\	-bis	4b-\	-bis	4d/	4f/
2r	.	2r	.	2r	.	2r	.	2r	.	2r	.	2r	.	2r	2r
4r	.	4r	.	4r	.	4r	.	4r	.	4r	.	4r	.	4r	4r
==	==	==	==	==	==	==	==	==	==	==	==	==	==	==	==
*-	*-	*-	*-	*-	*-	*-	*-	*-	*-	*-	*-	*-	*-	*-	*-
!!!system-decoration: [(g1)][(g2)][(g3)][(g4)]
!!!RDF**kern: >= above
!!!RDF**kern: <= below
!!!AIN: 1 alto 3 empty 1 organ 1 tenor 2 violn 1 vox
!!!ENC: Anna Matuszewska
!!!END: 2020-11-07
!!!ENC: Berenika Jozajtis
!!!END: 2020-05-03
